X:1
T:Love came down at Christmas
T:Edgar Pettman (1866-1943)
T:Christina Rossetti (1830-1894)
T:Love came down at Christmas
T:© CPDL 2015
T:© CPDL 2015
C:Edgar Pettman (1866-1943)
Z:Christina Rossetti (1830-1894)
Z:© CPDL 2015
%%score [ ( 1 2 ) ( 3 4 ) ]
L:1/8
M:4/4
K:G
V:1 treble nm="Soprano" snm="S."
V:2 treble 
V:3 bass nm="Bass" snm="B."
V:4 bass 
V:1
!mf!"^With Spirit" d2[Q:1/4=108] e2 B2 (AB) | G4 D4 | G3 A (Bc) d2 | (GA) B2 A4 | d2 e2 B2 (AB) | %5
w: ||Love all * * *|||
 G4 F4 | E3 F (GA) B2 | A2 A2 G4 ||!f!"^(*The Nöel may be omitted)" (ED) (EF) G4 | %9
w: |||Sing * Nö- * el,|
"^cresc." (GF) (GA)"^2.  Worship we the Godhead,   Love Incarnate, Love Divine;  Worship we our Jesus:   But wherewith for sacred sign?3.  Love shall be our token,   Love be yours and love be mine;  Love to God and all men,   Love for plea and gift and sign." B4 | %10
w: Sing * Nö- * el,|
 (BABc d2) e2 | d8 || %12
w: ||
V:2
 G2 G2 G2 F2 | E4 C4 | B,3 D G2 G2 | G2 G2 (G2 F2) | G2 G2 G2 F2 | E4 ^D4 | E3 =D D2 E2 | %7
w: 1.Love came down at|Christ- mas|* * love- ly|Love Di- vine; *|Love was born at|Christ- mas,|Star and an- gels|
 E2 (DC) B,4 || (CB,) (CD) E4 | (ED) (EF) G4 | (G4 G2) (E^F) | G8 || %12
w: gave the * sign.|||Sing _ Nö- *|el.|
V:3
!mf! G,2 G,2 D2 (CD) | B,4 A,4 | G,3 D D2 D2 | E2 D2 D4 | D2 G2 D2 C2 | B,4 A,4 | %6
w: ||||||
 G,3 A, (G,F,) G,2 | G,2 F,2 G,4 || z4!f! (G,F,) (G,A,) | B,2- B, z (B,A,B,C | DEDC B,2) (G,A,) | %11
w: |||el, * Sing _ _ _|_ _ _ _ _ _ _|
 [D,B,]8 || %12
w: |
V:4
 B,,2 C,2 D,2 D,2 | E,4 F,4 | G,3 F, (G,A,) B,2 | C2 B,2 D4 | B,2 C2 D2 D,2 | E,4 B,,4 | %6
w: ||||||
 C,3 C, (B,,A,,) G,,2 | C,2 D,2 G,,4 || x4 (E,D,) (E,F,) | G,2- G, x (G,F,G,A, | B,CB,A, G,2) C,2 | %11
w: ||Sing _ Nö- *||* * * * * Nö-|
 G,,8 || %12
w: el.|

